svg/fluentui-system-icons/ic_fluent_tag_lock_accent_24_filled.svg

<svg width="24" height="24" viewBox="0 0 24 24" fill="none" xmlns="http://www.w3.org/2000/svg">
<path d="M19.7504 2.50001C20.2144 2.50054 20.6592 2.68508 20.9873 3.01316C21.3154 3.34123 21.4999 3.78604 21.5004 4.25001V9.71201C21.5021 10.0728 21.4322 10.4304 21.2949 10.764C21.1576 11.0977 20.9555 11.4009 20.7004 11.656L20.366 11.9905C19.7328 11.0891 18.6852 10.5 17.5 10.5C15.567 10.5 14 12.067 14 14V14.05C12.8589 14.2817 12 15.2905 12 16.5V20.3374C11.5101 20.7387 10.8942 20.9607 10.2554 20.9607C9.52611 20.9607 8.82659 20.6713 8.31044 20.156L3.84244 15.705C3.58712 15.4497 3.38459 15.1467 3.24641 14.8131C3.10823 14.4796 3.03711 14.1221 3.03711 13.761C3.03711 13.4 3.10823 13.0425 3.24641 12.7089C3.38459 12.3753 3.58712 12.0723 3.84244 11.817L12.3424 3.30701C12.5967 3.05053 12.8994 2.84712 13.233 2.70858C13.5665 2.57005 13.9243 2.49915 14.2854 2.50001H19.7504Z" fill="#212121"/>
</svg>

<svg xmlns="http://www.w3.org/2000/svg" width="24" height="24"><path d="M19.75 2.5a1.752 1.752 0 0 1 1.75 1.75v5.462a2.73 2.73 0 0 1-.8 1.944l-.334.335A3.5 3.5 0 0 0 14 14v.049a2.5 2.5 0 0 0-2 2.45v3.837a2.753 2.753 0 0 1-3.69-.181l-4.468-4.451a2.749 2.749 0 0 1 0-3.888l8.5-8.51a2.727 2.727 0 0 1 1.943-.807h5.465Z"/></svg>
